**kern
*clefG2
*k[]
*M4/4
=1
1c 1e 1g 1cc
=2
*^
4g	[1c [1e 1gg
4g#X	.
4a	.
4a#X	.
=3	=3
4b	1c] 1e] 1g
4cc	.
4cc#X	.
4dd	.
=4	=4
*	*^
(4dd#X	2g	1c 1cc
4ee)	.	.
(4ff#X	2e	.
4gg)	.	.
*	*v	*v
=5	=5
(2gg#X	2.f 2.f 2.cc
4aa)	.
4r	4r
=6	=6
4g	[1c [1e [1g
4g	.
4a	.
4a	.
=7	=7
4b	1c] 1e] 1g]
4cc	.
4cc	.
4dd	.
!!linebreak:original
=8	=8
*	*^
(4dd	2g	1c 1cc
4ee)	.	.
(4ff	2e	.
4gg)	.	.
*	*v	*v
=9	=9
(2gg	2.f 2.f 2.cc
4aa)	.
4r	4r
*v	*v
==
*-
!!!system-decoration: [(s1
